X: 4076
T: FILL YOUR GLASSES
R: Strathspey.
%R: strathspey
B: James Kerr "Merry Melodies" v.4 p.11 #76
Z: 2016 John Chambers <jc:trillian.mit.edu>
M: C
L: 1/8
K: D
|:\
D>EF>G A2B>c | d/d/d e>f d2c2 |\
B/B/B g>B A/A/A f>A |[1 G>FE>D (C<E) E2 :|[2 B/B/B e>c d3A |]
|:\
a>gf>e d2e>f | g>fe>d (3cBA (3GFE |\
D>EF>G A2B>c | d/d/d e>f d3A :|

%%sep 1 1 500
%%sep 1 1 500

